contributed-vectors/last_day_on_earth_survival.svg

<?xml version="1.0" encoding="UTF-8" standalone="no"?>
<svg
   xmlns:dc="http://purl.org/dc/elements/1.1/"
   xmlns:cc="http://creativecommons.org/ns#"
   xmlns:rdf="http://www.w3.org/1999/02/22-rdf-syntax-ns#"
   xmlns:svg="http://www.w3.org/2000/svg"
   xmlns="http://www.w3.org/2000/svg"
   xmlns:sodipodi="http://sodipodi.sourceforge.net/DTD/sodipodi-0.dtd"
   xmlns:inkscape="http://www.inkscape.org/namespaces/inkscape"
   viewBox="0 0 192 192"
   version="1.1"
   id="svg16"
   sodipodi:docname="last_day_on_earth_survival.svg"
   inkscape:version="0.92.4 (5da689c313, 2019-01-14)">
  <metadata
     id="metadata20">
    <rdf:RDF>
      <cc:Work
         rdf:about="">
        <dc:format>image/svg+xml</dc:format>
        <dc:type
           rdf:resource="http://purl.org/dc/dcmitype/StillImage" />
        <dc:title></dc:title>
      </cc:Work>
    </rdf:RDF>
  </metadata>
  <sodipodi:namedview
     pagecolor="#ffffff"
     bordercolor="#666666"
     borderopacity="1"
     objecttolerance="10"
     gridtolerance="10"
     guidetolerance="10"
     inkscape:pageopacity="0"
     inkscape:pageshadow="2"
     inkscape:window-width="1920"
     inkscape:window-height="1017"
     id="namedview18"
     showgrid="true"
     inkscape:zoom="3.4766083"
     inkscape:cx="149.27505"
     inkscape:cy="111.82157"
     inkscape:window-x="-8"
     inkscape:window-y="-8"
     inkscape:window-maximized="1"
     inkscape:current-layer="svg16"
     inkscape:snap-global="false">
    <inkscape:grid
       type="xygrid"
       id="grid827"
       spacingx="4"
       spacingy="4" />
  </sodipodi:namedview>
  <defs
     id="defs4">
    <style
       id="style2">.a{fill:none;stroke:#b1b5bd;stroke-linecap:round;stroke-linejoin:round;isolation:isolate;opacity:0.63;}</style>
  </defs>
  <rect
     class="a"
     x="20"
     y="20"
     width="152"
     height="152"
     rx="10"
     id="rect6"
     style="fill:#e0f4e0;stroke:none;opacity:1;fill-opacity:1" />
  <path
     style="fill:#96dfd3;stroke:none;stroke-width:1px;stroke-linecap:butt;stroke-linejoin:miter;stroke-opacity:1;fill-opacity:1"
     d="M 172 58.425781 L 156.40625 61.423828 L 137.69531 72.203125 L 125.49219 73.017578 L 93.355469 87.253906 L 61.017578 87.660156 L 45.763672 93.558594 L 37.017578 93.558594 L 20 103.2832 L 20 162 C 20 167.54 24.46 172 30 172 L 162 172 C 167.54 172 172 167.54 172 162 L 172 58.425781 z "
     id="path831" />
  <path
     style="fill:#73ada4;stroke:none;stroke-width:1px;stroke-linecap:butt;stroke-linejoin:miter;stroke-opacity:1"
     d="m 35.523127,85.142982 0.287637,58.246418 2.876366,-1.43818 -1.582001,-56.232965 4.746005,-2.876366 -1.006729,2.013456 -0.287636,21.860385 0.735043,-0.14692 1.853687,-20.994373 -0.143819,-3.020185 2.301093,2.157275 0.431455,-1.150547 -1.582001,-1.294365 1.150546,-0.86291 3.164004,1.294365 4.31455,-1.438183 8.916736,-0.143818 0.04475,-0.799725 -17.446772,-0.49464 -1.438183,-1.294365 0.719092,-2.732548 -4.170732,-20.134566 -1.438183,0.431455 2.58873,19.271656 1.438183,3.164003 -12.799831,5.033641 0.431455,0.86291 z"
     id="path874"
     inkscape:connector-curvature="0"
     sodipodi:nodetypes="cccccccccccccccccccccccccccc" />
  <path
     style="fill:#73ada4;stroke:none;stroke-width:1.51920104px;stroke-linecap:butt;stroke-linejoin:miter;stroke-opacity:1"
     d="M 134.97461 20 L 139.9375 47.666016 L 142.12305 52.472656 L 121.66992 57.818359 L 122.32617 59.130859 L 132.29102 62.523438 L 131.57617 149.14258 L 138.67969 146.95703 L 134.69336 63.398438 L 141.32812 59.962891 L 140.1582 63.09375 L 139.9375 95.296875 L 141.05469 95.074219 L 143.6543 64.185547 L 143.07617 59.525391 L 146.57227 62.802734 L 147.22852 61.054688 L 144.82422 59.087891 L 146.57227 57.777344 L 151.37891 59.816406 L 156.7832 59.5 L 171.33594 61.007812 L 171.4043 59.792969 L 145.61914 54.439453 L 143.43359 52.472656 L 144.52539 48.322266 L 137.42578 20 L 134.97461 20 z "
     id="path874-9" />
  <path
     style="fill:#8e6f60;stroke:none;stroke-width:1px;stroke-linecap:butt;stroke-linejoin:miter;stroke-opacity:1"
     d="M 172 128 L 20 140 L 20 162 C 20 167.54 24.46 172 30 172 L 162 172 C 167.54 172 172 167.54 172 162 L 172 128 z "
     id="path829" />
  <path
     style="fill:#56595b"
     d="M 98.287109 29.482422 C 92.960901 29.746356 91.626953 34.423828 91.626953 34.423828 L 90.609375 35.390625 L 90.763672 38.746094 L 90.40625 40.982422 C 90.40625 40.982422 89.66138 41.157322 90 42.710938 C 90.336803 44.256219 91.373047 44.695312 91.373047 44.695312 L 91.576172 45.916016 L 85.119141 49.220703 L 82.576172 52.423828 L 80.339844 55.677734 L 81.355469 57.355469 L 75.355469 61.423828 L 73.068359 62.898438 L 70.322266 70.373047 L 69.660156 74.033203 L 69.966797 76.728516 L 65.472656 82.876953 L 67.164062 86.4375 L 64.861328 88.703125 L 65.292969 89.205078 L 62.884766 91.111328 L 62.525391 95.390625 L 59.865234 99.777344 L 61.517578 101.28711 L 60.65625 104.66602 L 60.798828 105.34961 L 60.224609 107.86719 L 59.900391 109.44922 L 60.583984 110.02344 L 60.404297 115.20117 L 60.871094 116.71094 L 55.369141 123.25586 L 53.751953 124.69336 L 53.357422 125.73633 L 52.457031 126.0957 L 51.810547 127.60547 L 50.048828 128.54102 L 48.970703 127.78516 L 45.337891 132.71094 L 43.648438 133.14258 L 43.181641 132.81836 L 40.125 134.2207 C 40.125 134.2207 41.236295 134.79144 41.203125 135.29883 C 38.26902 136.96907 35.164062 139.9375 35.164062 139.9375 C 35.164063 139.9375 36.794869 140.27888 36.960938 140.94531 C 32.970692 144.0127 32.611328 147.70312 32.611328 147.70312 C 32.611328 147.70312 33.789099 146.45586 34.335938 146.80469 C 33.345421 150.93361 33.976562 154.78711 33.976562 154.78711 C 33.976563 154.78711 34.833342 153.11136 36.027344 153.34961 C 37.031465 156.47488 42.066406 157.30469 42.066406 157.30469 C 42.066406 157.30469 41.848922 155.33278 42.390625 154.60742 C 47.887069 154.45868 51.306641 150.75977 51.306641 150.75977 C 51.306641 150.75977 48.178863 150.87181 47.890625 149.7168 C 51.481727 147.64558 53.285156 144.32422 53.285156 144.32422 L 54.939453 140.36914 C 54.939453 140.36914 52.968464 141.18634 52.0625 140.83594 C 51.505619 140.62056 50.947266 139.43359 50.947266 139.43359 L 51.775391 139.32617 L 55.261719 134.93945 L 54.076172 132.17188 L 55.189453 130.98438 L 54.902344 130.05078 L 56.376953 128.50391 L 57.275391 128.46875 L 58.210938 127.42578 L 57.660156 126.71094 L 62.919922 119.51562 L 63.208984 119.875 L 65.005859 119.08398 L 65.4375 117.42969 L 66.875 117.50195 L 68.314453 116.35156 L 67.810547 115.56055 L 68.888672 114.76953 L 69.105469 113.33203 L 70.328125 111.60547 L 69.679688 110.38281 L 73.203125 106.14062 L 74.642578 106.28516 L 76.439453 103.62305 C 76.439453 103.62305 76.055499 101.77684 74.210938 100.81836 C 72.135373 99.739847 70.757812 101.03516 70.757812 101.03516 L 75.503906 94.5625 L 75.144531 92.119141 L 78.021484 89.601562 L 78.667969 85.142578 L 79.748047 84.783203 L 80.179688 87.15625 L 78.667969 91.470703 L 81.113281 96.072266 L 79.099609 101.17969 L 79.171875 103.33594 L 77.806641 106.14062 L 79.099609 108.00977 L 77.589844 111.67773 L 78.453125 113.25977 L 76.583984 116.20703 L 76.943359 122.10352 L 74.642578 128 L 75.001953 130.37305 L 73.851562 132.24414 L 74.425781 135.55078 L 71.908203 139.21875 L 73.634766 144.82812 L 71.333984 149.42969 L 71.478516 150.29297 L 69.033203 156.62109 L 69.751953 158.63477 L 68.746094 164.81836 L 68.974609 172 L 78.904297 172 L 80.695312 167.49219 L 80.644531 163.88086 L 83.339844 157.62695 L 82.423828 150 L 83.949219 148.27148 L 84.050781 146.33984 L 87.355469 142.2207 L 87.40625 136.57617 L 91.271484 129.20312 L 94.220703 122.0332 L 95.746094 121.27148 L 100.47461 131.49219 L 101.23828 134.18555 L 101.44141 139.52539 L 105.15234 144.15234 L 105.35547 149.0332 L 103.62695 155.54297 L 104.84766 159.55859 L 104.69531 161.69531 L 106.88086 166.11914 L 105.9668 168.20312 L 107.54102 172 L 119.98047 172 L 118.01758 164.79688 L 117.91602 156.60938 L 119.84766 155.23633 L 116.79688 148.62695 L 117 143.0332 L 115.72852 140.84766 L 116.94922 139.06836 L 117.15234 134.74609 L 116.08398 132 L 115.72852 128.08398 L 116.18555 120.86523 L 115.16992 119.28906 L 114.76367 116.69531 L 116.13477 114.55859 L 115.37305 112.83008 L 116.74609 111.50781 L 115.11914 109.11914 L 116.89844 106.67773 L 115.62695 103.98242 L 120.30469 102.50781 L 123.55859 101.69531 L 124.2207 100.27148 L 126.86523 99.865234 L 128.54297 97.169922 L 128.84766 94.576172 L 129.15234 92.898438 L 129.60938 93.101562 L 130.98242 92.492188 L 128.94922 88.017578 L 127.83008 87.050781 L 129 86.644531 L 131.94922 83.441406 L 130.32227 77.746094 L 131.08398 75.609375 L 130.67773 72.203125 L 125.44141 68.492188 L 123.15234 63.101562 L 116.0332 58.017578 L 116.18555 55.880859 L 111.81445 49.779297 L 105.60938 46.423828 L 105.66016 45.865234 L 106.27148 45.865234 C 106.27148 45.865234 107.23362 45.766461 108 43.525391 C 108.53908 41.948996 107.84766 41.134766 107.84766 41.134766 L 107.13477 41.289062 L 106.7793 40.119141 L 107.64453 35.898438 L 106.98242 35.236328 C 106.98242 35.236328 106.59144 29.938796 99.40625 29.492188 C 99.014897 29.467862 98.64219 29.464826 98.287109 29.482422 z "
     id="path856" />
</svg>

<svg xmlns="http://www.w3.org/2000/svg" viewBox="0 0 192 192"><rect width="152" height="152" x="20" y="20" rx="10" style="fill:#e0f4e0;stroke:none;opacity:1;fill-opacity:1;stroke-linecap:round;stroke-linejoin:round;isolation:isolate"/><path d="m172 58.426-15.594 2.998-18.71 10.78-12.204.814-32.137 14.236-32.337.406-15.254 5.899h-8.746L20 103.283V162c0 5.54 4.46 10 10 10h132c5.54 0 10-4.46 10-10V58.426z" style="fill:#96dfd3;stroke:none;stroke-width:1px;stroke-linecap:butt;stroke-linejoin:miter;stroke-opacity:1;fill-opacity:1"/><path d="m35.523 85.143.288 58.246 2.876-1.438-1.582-56.233 4.746-2.876-1.007 2.013-.287 21.86.735-.146 1.853-20.995-.143-3.02 2.3 2.158.432-1.151-1.582-1.294 1.15-.863 3.165 1.294 4.314-1.438 8.917-.144.045-.8-17.447-.494-1.438-1.295.719-2.732-4.17-20.135-1.439.432 2.589 19.271 1.438 3.164-12.8 5.034.432.863z" style="fill:#73ada4;stroke:none;stroke-width:1px;stroke-linecap:butt;stroke-linejoin:miter;stroke-opacity:1"/><path d="m134.975 20 4.963 27.666 2.185 4.807-20.453 5.345.656 1.313 9.965 3.392-.715 86.62 7.104-2.186-3.987-83.559 6.635-3.435-1.17 3.13-.22 32.204 1.117-.223 2.6-30.888-.579-4.66 3.496 3.277.657-1.748-2.405-1.967 1.748-1.31 4.807 2.038 5.404-.316 14.553 1.508.068-1.215-25.785-5.354-2.185-1.966 1.091-4.15-7.1-28.323h-2.45z" style="fill:#73ada4;stroke:none;stroke-width:1.51920104px;stroke-linecap:butt;stroke-linejoin:miter;stroke-opacity:1"/><path d="M172 128 20 140v22c0 5.54 4.46 10 10 10h132c5.54 0 10-4.46 10-10v-34z" style="fill:#8e6f60;stroke:none;stroke-width:1px;stroke-linecap:butt;stroke-linejoin:miter;stroke-opacity:1"/><path d="M98.287 29.482c-5.326.264-6.66 4.942-6.66 4.942l-1.018.967.155 3.355-.358 2.236s-.745.175-.406 1.729c.337 1.545 1.373 1.984 1.373 1.984l.203 1.221-6.457 3.305-2.543 3.203-2.236 3.254 1.015 1.677-6 4.069-2.287 1.474-2.746 7.475-.662 3.66.307 2.696-4.494 6.148 1.691 3.56-2.303 2.266.432.502-2.408 1.906-.36 4.28-2.66 4.386 1.653 1.51-.862 3.379.143.684-.574 2.517-.325 1.582.684.574-.18 5.178.467 1.51-5.502 6.545-1.617 1.437-.395 1.043-.9.36-.646 1.51-1.762.935-1.078-.756-3.633 4.926-1.69.432-.466-.325-3.057 1.403s1.111.57 1.078 1.078c-2.934 1.67-6.039 4.638-6.039 4.638s1.63.342 1.797 1.008c-3.99 3.068-4.35 6.758-4.35 6.758s1.178-1.247 1.725-.898c-.99 4.129-.36 7.982-.36 7.982s.857-1.676 2.051-1.437c1.004 3.125 6.04 3.955 6.04 3.955s-.218-1.972.324-2.698c5.496-.148 8.916-3.847 8.916-3.847s-3.128.112-3.416-1.043c3.59-2.071 5.394-5.393 5.394-5.393l1.654-3.955s-1.97.817-2.877.467c-.556-.215-1.115-1.402-1.115-1.402l.828-.108 3.487-4.387-1.186-2.767 1.113-1.188-.287-.933 1.475-1.547.898-.035.936-1.043-.55-.715 5.259-7.195.289.359 1.797-.791.431-1.654 1.438.072 1.44-1.15-.504-.791 1.078-.791.216-1.438 1.223-1.727-.648-1.222 3.523-4.242 1.44.144 1.796-2.662s-.384-1.846-2.228-2.805c-2.076-1.078-3.453.217-3.453.217l4.746-6.472-.36-2.444 2.877-2.517.647-4.46 1.08-.359.432 2.373-1.512 4.315 2.445 4.601-2.013 5.108.072 2.156-1.365 2.805 1.293 1.869-1.51 3.668.863 1.582-1.869 2.947.36 5.897L74.642 128l.359 2.373-1.15 1.871.574 3.307-2.518 3.668 1.727 5.61-2.301 4.6.145.864-2.446 6.328.719 2.014-1.006 6.183.229 7.182h9.93l1.79-4.508-.05-3.611 2.695-6.254-.916-7.627 1.525-1.729.102-1.931 3.304-4.12.051-5.644 3.865-7.373 2.95-7.17 1.525-.762 4.729 10.221.763 2.694.203 5.34 3.711 4.626.203 4.881-1.728 6.51 1.22 4.016-.152 2.136 2.186 4.424-.914 2.084L107.54 172h12.44l-1.963-7.203-.102-8.188 1.932-1.373-3.051-6.609.203-5.594-1.271-2.185 1.22-1.78.203-4.322-1.068-2.746-.355-3.916.457-7.219-1.016-1.576-.406-2.594 1.37-2.136-.76-1.729 1.372-1.322-1.627-2.389 1.78-2.441-1.272-2.696 4.678-1.474 3.254-.813.662-1.424 2.644-.406 1.678-2.695.305-2.594.304-1.678.457.204 1.373-.61-2.033-4.474-1.119-.967 1.17-.406 2.95-3.204-1.628-5.695.762-2.137-.406-3.406-5.237-3.71-2.289-5.391-7.119-5.084.153-2.137-4.372-6.102-6.205-3.355.051-.559h.611s.963-.099 1.729-2.34c.54-1.576-.152-2.39-.152-2.39l-.713.154-.356-1.17.866-4.22-.663-.663s-.39-5.297-7.576-5.744a10.037 10.037 0 0 0-1.119-.01z" style="fill:#56595b"/></svg>
